X: 4824
T: Boys Of The Town, The
R: jig
M: 6/8
K: Gmajor
"G"ged B2A|BGE G2A|"G"BdB "C"ABA|"D"GBd e2f|
"G"ged B2A|BGE G2A|"G"BdB "C"AGA|"D"BGF "G,"G3:|
|:"G"def gfg|"Am"eaa eaa|"Em"bag e2d|"C"efg efg|
"G"def gfg|"D"afd efg|"C"edB AGA|"D"BGF "G"G3:|

